svg/roborock.svg

<?xml version="1.0" encoding="UTF-8"?>
<!DOCTYPE svg PUBLIC "-//W3C//DTD SVG 1.1//EN" "http://www.w3.org/Graphics/SVG/1.1/DTD/svg11.dtd">
<svg xmlns="http://www.w3.org/2000/svg" xmlns:xlink="http://www.w3.org/1999/xlink" version="1.1"  width="24" height="24" viewBox="0 0 24 24">
<style>path{fill:#000}@media (prefers-color-scheme:dark){path{fill:#fff}}</style>
<path d="m12 2c-4.6581 0-8.5603 3.1891-9.6719 7.5h6.7324c0.27934-1.3661 1.4936-2.4004 2.9395-2.4004 1.4459 0 2.6601 1.0343 2.9395 2.4004h6.7324c-1.1116-4.3109-5.0138-7.5-9.6719-7.5zm0 6.0996c-1.1105 0-2 0.88951-2 2 0 1.1105 0.88951 2 2 2 1.1105 0 2-0.88951 2-2-1e-6 -1.1105-0.88951-2-2-2zm-9.875 2.4004c-0.074044 0.49072-0.125 0.98863-0.125 1.5 0.00314 0.5837 0.057387 1.166 0.16211 1.7402l2.5352-0.45117c0.46433 2.1646 1.7512 4.0259 3.5527 5.1387 2.3205 1.4291 5.1795 1.4291 7.5 0 1.8019-1.1132 3.0889-2.9753 3.5527-5.1406l2.543 0.45312c0.1021-0.57447 0.15373-1.1568 0.1543-1.7402 0-0.51137-0.050956-1.0093-0.125-1.5h-6.916c-0.19863 1.4615-1.445 2.5996-2.959 2.5996s-2.7604-1.1381-2.959-2.5996h-6.916zm17.846 4.4297c-1.2275 3.3433-4.4092 5.5668-7.9707 5.5703-3.561-0.003241-6.7425-2.2259-7.9707-5.5684l-1.4941 0.26758c1.3713 4.0612 5.1784 6.7967 9.4648 6.8008 4.2862-0.0052 8.0925-2.7415 9.4629-6.8027l-1.4922-0.26758z"/>
</svg>

<svg xmlns="http://www.w3.org/2000/svg" width="24" height="24">
<style>@media (prefers-color-scheme:dark){path{fill:#fff}}</style>
<path d="M12 2C7.342 2 3.44 5.19 2.328 9.5H9.06A3.01 3.01 0 0 1 12 7.1a3.01 3.01 0 0 1 2.94 2.4h6.732C20.56 5.19 16.658 2 12 2zm0 6.1c-1.11 0-2 .89-2 2 0 1.11.89 2 2 2 1.11 0 2-.89 2-2 0-1.11-.89-2-2-2zm-9.875 2.4C2.051 10.99 2 11.489 2 12c.003.584.057 1.166.162 1.74l2.535-.451c.465 2.165 1.752 4.026 3.553 5.139a7.096 7.096 0 0 0 7.5 0c1.802-1.113 3.089-2.976 3.553-5.14l2.543.452A10 10 0 0 0 22 12c0-.511-.05-1.01-.125-1.5h-6.916c-.199 1.462-1.445 2.6-2.959 2.6s-2.76-1.138-2.959-2.6H2.125zm17.846 4.43a8.5 8.5 0 0 1-7.97 5.57 8.5 8.5 0 0 1-7.971-5.568l-1.495.267A10 10 0 0 0 12 22a10 10 0 0 0 9.463-6.803l-1.492-.267z"/>
</svg>
